X:123
T: ICH WILL EUCH' MAL SINGEN EIN LIEDELEIN EIN NEUES
N: Z0123
O: Europa, Mitteleuropa, Deutschland, Bayern
R: Erzaehlung, lustige Romanze
M: 3/4
L: 1/8
K: G
D | G2G2D2 | G2G2D2 | G2G2A2 | B2B2
G2 | E2E2G2 | G2F2E2 | E2D2D2 | D2D2
Bd | dccBcd | c4Ac | cBBABc | B4
G2 | B2A2A2 | c2A2F2 | A2G2F2 | G4z

@@@ Tune index: 9881
